;FLAVOR:Marlin
M117 Time Left 2h39m08s
;Filament used: 11.5459m
;Layer height: 0.28
;MINX:35.459
;MINY:81
;MINZ:0.285
;MAXX:199.541
;MAXY:154
;MAXZ:56.845
;POSTPROCESSED
;Generated with Cura_SteamEngine 4.6.1
M140 S60
M105
M190 S60
M104 S200
M105
M109 S200
M82 ;absolute extrusion mode
; Ender 3 Custom Start G-code
G92 E0 ; Reset Extruder
G28 ; Home all axes
G1 Z2.0 F3000 ; Move Z Axis up little to prevent scratching of Heat Bed
G1 X0.1 Y20 Z0.3 F5000.0 ; Move to start position
G1 X0.1 Y200.0 Z0.3 F1500.0 E15 ; Draw the first line
G1 X0.4 Y200.0 Z0.3 F5000.0 ; Move to side a little
G1 X0.4 Y20 Z0.3 F1500.0 E30 ; Draw the second line
G92 E0 ; Reset Extruder
G1 Z2.0 F3000 ; Move Z Axis up little to prevent scratching of Heat Bed
G1 X5 Y20 Z0.3 F5000.0 ; Move over to prevent blob squish
G92 E0
G92 E0
G1 F2700 E-6
;LAYER_COUNT:203
;LAYER:0
M107
M204 S500
M205 X8 Y8
G0 F7500 X188.678 Y81.811 Z0.285
;TYPE:SKIRT
G1 F2700 E0
G1 F1500 X189.58 Y81.864 E0.04068
G1 X190.473 Y81.996 E0.08133
G1 X191.351 Y82.207 E0.12199
G1 X192.207 Y82.495 E0.16265
G1 X193.034 Y82.857 E0.2033
G1 X193.826 Y83.292 E0.24398
G1 X194.577 Y83.794 E0.28466
G1 X195.28 Y84.361 E0.32532
G1 X195.93 Y84.988 E0.36599
G1 X196.522 Y85.67 E0.40665
G1 X197.052 Y86.401 E0.44731
G1 X197.514 Y87.177 E0.48797
G1 X197.907 Y87.99 E0.52863
G1 X198.225 Y88.835 E0.56928
G1 X198.468 Y89.705 E0.60995
G1 X198.633 Y90.593 E0.65062
G1 X198.728 Y91.723 E0.70168
G1 X198.741 Y92.33 E0.72901
G1 X198.74 Y142.39 E2.98301
G1 X198.731 Y143.117 E3.01575
G1 X198.68 Y144.019 E3.05643
G1 X198.549 Y144.913 E3.09711
G1 X198.34 Y145.791 E3.13775
G1 X198.054 Y146.648 E3.17843
G1 X197.693 Y147.476 E3.2191
G1 X197.261 Y148.268 E3.25972
G1 X196.76 Y149.02 E3.3004
G1 X196.194 Y149.724 E3.34107
G1 X195.569 Y150.375 E3.38171
G1 X194.888 Y150.969 E3.4224
G1 X194.157 Y151.5 E3.46308
G1 X193.383 Y151.964 E3.50371
G1 X192.57 Y152.358 E3.54439
G1 X191.726 Y152.678 E3.58503
G1 X190.856 Y152.923 E3.62573
G1 X189.969 Y153.089 E3.66636
G1 X188.818 Y153.187 E3.71837
G1 X188.211 Y153.2 E3.74571
G1 X47.166 Y153.2 E10.09639
G1 X46.336 Y153.19 E10.13376
G1 X45.435 Y153.139 E10.17439
G1 X44.541 Y153.007 E10.21508
G1 X43.663 Y152.798 E10.25572
G1 X42.806 Y152.511 E10.29641
G1 X41.979 Y152.15 E10.33704
G1 X41.186 Y151.717 E10.37773
G1 X40.435 Y151.216 E10.41837
G1 X39.731 Y150.65 E10.45905
G1 X39.08 Y150.024 E10.49971
G1 X38.487 Y149.343 E10.54037
G1 X37.957 Y148.612 E10.58102
G1 X37.493 Y147.837 E10.6217
G1 X37.099 Y147.024 E10.66237
G1 X36.779 Y146.18 E10.70301
G1 X36.535 Y145.31 E10.7437
G1 X36.369 Y144.422 E10.78437
G1 X36.272 Y143.267 E10.83656
G1 X36.259 Y142.658 E10.86399
G1 X36.26 Y92.536 E13.12078
G1 X36.269 Y91.871 E13.15072
G1 X36.321 Y90.969 E13.1914
G1 X36.453 Y90.076 E13.23205
G1 X36.663 Y89.198 E13.2727
G1 X36.95 Y88.341 E13.31339
G1 X37.312 Y87.514 E13.35404
G1 X37.745 Y86.722 E13.39468
G1 X38.247 Y85.971 E13.43535
G1 X38.814 Y85.267 E13.47605
G1 X39.44 Y84.617 E13.51669
G1 X40.121 Y84.024 E13.55734
G1 X40.853 Y83.494 E13.59804
G1 X41.628 Y83.031 E13.63868
G1 X42.441 Y82.638 E13.67934
G1 X43.286 Y82.318 E13.72003
G1 X44.155 Y82.075 E13.76065
G1 X45.043 Y81.909 E13.80133
G1 X46.182 Y81.813 E13.8528
G1 X46.789 Y81.8 E13.88013
G1 X187.834 Y81.8 E20.23081
G1 X187.98 Y81.801 E20.23739
G1 X188.678 Y81.811 E20.26882
G0 F7500 X188.684 Y81.411
G1 F1500 X189.603 Y81.464 E20.31027
G1 X190.514 Y81.597 E20.35172
G1 X191.41 Y81.808 E20.39317
G1 X192.284 Y82.096 E20.4346
G1 X193.131 Y82.459 E20.47609
G1 X193.942 Y82.894 E20.51753
G1 X194.712 Y83.398 E20.55897
G1 X195.436 Y83.967 E20.60043
G1 X196.108 Y84.597 E20.6419
G1 X196.723 Y85.282 E20.68335
G1 X197.276 Y86.018 E20.7248
G1 X197.763 Y86.799 E20.76624
G1 X198.18 Y87.62 E20.80771
G1 X198.525 Y88.474 E20.84918
G1 X198.794 Y89.354 E20.89061
G1 X198.986 Y90.255 E20.93209
G1 X199.099 Y91.168 E20.97351
G1 X199.128 Y91.712 E20.99804
G1 X199.141 Y92.33 E21.02587
G1 X199.14 Y142.395 E23.28009
G1 X199.131 Y143.122 E23.31283
G1 X199.08 Y144.041 E23.35427
G1 X198.949 Y144.953 E23.39576
G1 X198.739 Y145.849 E23.43719
G1 X198.453 Y146.724 E23.47864
G1 X198.092 Y147.571 E23.5201
G1 X197.658 Y148.383 E23.56155
G1 X197.156 Y149.155 E23.60302
G1 X196.588 Y149.88 E23.64449
G1 X195.96 Y150.553 E23.68593
G1 X195.276 Y151.169 E23.72738
G1 X194.541 Y151.723 E23.76882
G1 X193.761 Y152.212 E23.81027
G1 X192.941 Y152.631 E23.85173
G1 X192.088 Y152.977 E23.89318
G1 X191.208 Y153.248 E23.93464
G1 X190.308 Y153.441 E23.97608
G1 X189.394 Y153.556 E24.01756
G1 X188.829 Y153.587 E24.04304
G1 X188.211 Y153.6 E24.07087
G1 X47.166 Y153.6 E30.42155
G1 X46.331 Y153.59 E30.45915
G1 X45.412 Y153.538 E30.5006
G1 X44.501 Y153.407 E30.54204
G1 X43.605 Y153.197 E30.58347
G1 X42.73 Y152.91 E30.62494
G1 X41.883 Y152.548 E30.66641
G1 X41.071 Y152.114 E30.70787
G1 X40.3 Y151.612 E30.74929
G1 X39.575 Y151.044 E30.79076
G1 X38.902 Y150.415 E30.83224
G1 X38.287 Y149.731 E30.87365
G1 X37.733 Y148.996 E30.91509
G1 X37.245 Y148.215 E30.95656
G1 X36.826 Y147.395 E30.99802
G1 X36.48 Y146.542 E31.03947
G1 X36.21 Y145.662 E31.08091
G1 X36.017 Y144.761 E31.1224
G1 X35.903 Y143.848 E31.16383
G1 X35.872 Y143.277 E31.18958
G1 X35.859 Y142.658 E31.21746
G1 X35.86 Y92.531 E33.47447
G1 X35.869 Y91.866 E33.50441
G1 X35.921 Y90.946 E33.5459
G1 X36.053 Y90.035 E33.58735
G1 X36.264 Y89.139 E33.6288
G1 X36.551 Y88.264 E33.67026
G1 X36.914 Y87.418 E33.71171
G1 X37.348 Y86.606 E33.75317
G1 X37.851 Y85.835 E33.79462
G1 X38.42 Y85.111 E33.83608
G1 X39.048 Y84.439 E33.87749
G1 X39.733 Y83.823 E33.91897
G1 X40.469 Y83.27 E33.96042
G1 X41.25 Y82.782 E34.00189
G1 X42.07 Y82.364 E34.04333
G1 X42.924 Y82.019 E34.0848
G1 X43.804 Y81.749 E34.12625
G1 X44.704 Y81.557 E34.16768
G1 X45.618 Y81.443 E34.20915
G1 X46.171 Y81.413 E34.23409
G1 X46.789 Y81.4 E34.26192
G1 X187.834 Y81.4 E40.6126
G1 X187.986 Y81.401 E40.61944
G1 X188.684 Y81.411 E40.65088
G0 F7500 X188.69 Y81.011
G1 F1500 X189.626 Y81.065 E40.69309
G1 X190.554 Y81.197 E40.7353
G1 X191.468 Y81.409 E40.77754
G1 X192.36 Y81.698 E40.81976
G1 X193.225 Y82.061 E40.862
G1 X194.055 Y82.497 E40.90421
G1 X194.846 Y83.002 E40.94647
G1 X195.59 Y83.573 E40.98869
G1 X196.283 Y84.205 E41.03092
G1 X196.92 Y84.893 E41.07314
G1 X197.495 Y85.634 E41.11537
G1 X198.006 Y86.42 E41.15758
G1 X198.448 Y87.248 E41.19985
G1 X198.817 Y88.11 E41.24206
G1 X199.112 Y89 E41.28428
G1 X199.33 Y89.912 E41.3265
G1 X199.47 Y90.84 E41.36876
G1 X199.528 Y91.701 E41.40761
G1 X199.541 Y92.33 E41.43594
G1 X199.54 Y142.4 E43.69039
G1 X199.531 Y143.127 E43.72312
G1 X199.48 Y144.064 E43.76538
G1 X199.348 Y144.992 E43.80758
G1 X199.139 Y145.906 E43.8498
G1 X198.852 Y146.799 E43.89203
G1 X198.49 Y147.665 E43.93429
G1 X198.056 Y148.496 E43.9765
G1 X197.552 Y149.287 E44.01874
G1 X196.983 Y150.032 E44.06094
G1 X196.352 Y150.727 E44.10321
G1 X195.665 Y151.365 E44.14543
G1 X194.926 Y151.942 E44.18764
G1 X194.14 Y152.454 E44.22988
G1 X193.314 Y152.897 E44.27208
G1 X192.452 Y153.269 E44.31435
G1 X191.563 Y153.565 E44.35654
G1 X190.651 Y153.785 E44.39878
G1 X189.724 Y153.926 E44.441
G1 X188.84 Y153.987 E44.4809
G1 X188.211 Y154 E44.50923
G1 X47.166 Y154 E50.85991
G1 X46.326 Y153.99 E50.89773
G1 X45.39 Y153.938 E50.93994
G1 X44.461 Y153.806 E50.98219
G1 X43.547 Y153.596 E51.02441
G1 X42.654 Y153.309 E51.06665
G1 X41.789 Y152.946 E51.10889
G1 X40.958 Y152.512 E51.1511
G1 X40.167 Y152.008 E51.19333
G1 X39.422 Y151.438 E51.23556
G1 X38.728 Y150.807 E51.2778
G1 X38.091 Y150.12 E51.31998
G1 X37.514 Y149.38 E51.36223
G1 X37.002 Y148.594 E51.40447
G1 X36.559 Y147.767 E51.44671
G1 X36.188 Y146.906 E51.48892
G1 X35.892 Y146.016 E51.53116
G1 X35.673 Y145.104 E51.57339
G1 X35.532 Y144.177 E51.61561
G1 X35.472 Y143.288 E51.65572
G1 X35.459 Y142.658 E51.6841
G1 X35.46 Y92.525 E53.94138
G1 X35.469 Y91.86 E53.97133
G1 X35.522 Y90.924 E54.01354
G1 X35.654 Y89.995 E54.05579
G1 X35.865 Y89.081 E54.09802
G1 X36.153 Y88.189 E54.14023
G1 X36.516 Y87.324 E54.18247
G1 X36.951 Y86.493 E54.2247
G1 X37.455 Y85.703 E54.26689
G1 X38.025 Y84.958 E54.30913
G1 X38.657 Y84.264 E54.35139
G1 X39.345 Y83.627 E54.39361
G1 X40.085 Y83.051 E54.43583
G1 X40.871 Y82.539 E54.47807
G1 X41.698 Y82.097 E54.52029
G1 X42.56 Y81.727 E54.56252
G1 X43.45 Y81.431 E54.60476
G1 X44.362 Y81.213 E54.64698
G1 X45.289 Y81.072 E54.6892
G1 X46.16 Y81.013 E54.7285
G1 X46.789 Y81 E54.75683
G1 X187.834 Y81 E61.10751
G1 X187.992 Y81.001 E61.11462
G1 X188.69 Y81.011 E61.14606
G1 F2700 E55.14606
;MESH:soporte_mabrega.stl
G0 F7500 X164.468 Y97.665
G0 X164.468 Y95.83
G0 X162.541 Y96
;TYPE:WALL-INNER
G1 F2700 E61.14606
G1 F1800 X162.541 Y135 E62.90207
G1 X179.541 Y135 E63.66751
G1 X179.541 Y96 E65.42352
G1 X162.541 Y96 E66.18896
G0 F7500 X162.941 Y96.4
G1 F1800 X162.941 Y134.6 E67.90895
G1 X179.141 Y134.6 E68.63837
G1 X179.141 Y96.4 E70.35836
G1 X162.941 Y96.4 E71.08778
G0 F7500 X163.341 Y96.8
;TYPE:WALL-OUTER
G1 F1800 X163.341 Y134.2 E72.68755
G1 X178.741 Y134.2 E73.34628
G1 X178.741 Y96.8 E74.94605
G1 X163.341 Y96.8 E75.60477
G0 F7500 X163.341 Y97.2
G0 X162.901 Y97.2
G1 F2700 E69.60477
G0 F7500 X162.351 Y121.173
G0 X164.206 Y121.173
G0 X130.693 Y122.703
G0 X132.506 Y122.254
G0 X130.784 Y120.554
G0 X129.981 Y119.844
G0 X129.033 Y119.347
G0 X127.993 Y119.09
G0 X126.924 Y119.09
G0 X125.884 Y119.347
G0 X125.116 Y119.749
G0 X123.025 Y121.173
;TYPE:WALL-INNER
G1 F2700 E75.60477
G1 F1800 X122.597 Y122.303 E75.65918
G1 X122.452 Y123.5 E75.71347
G1 X122.597 Y124.697 E75.76776
G1 X123.025 Y125.827 E75.82217
G1 X123.71 Y126.82 E75.87648
G1 X124.613 Y127.622 E75.93086
G1 X125.683 Y128.182 E75.98524
G1 X126.854 Y128.471 E76.03955
G1 X128.063 Y128.471 E76.09398
G1 X129.234 Y128.182 E76.14829
G1 X130.303 Y127.622 E76.20263
G1 X131.208 Y126.82 E76.25708
G1 X131.892 Y125.827 E76.31137
G1 X132.32 Y124.699 E76.36569
G1 X132.466 Y123.5 E76.42007
G1 X132.32 Y122.301 E76.47446
G1 X131.892 Y121.173 E76.52878
G1 X131.208 Y120.18 E76.58307
G1 X130.303 Y119.378 E76.63752
G1 X129.234 Y118.818 E76.69186
G1 X128.063 Y118.529 E76.74616
G1 X126.854 Y118.529 E76.8006
G1 X125.683 Y118.818 E76.85491
G1 X124.613 Y119.378 E76.90928
G1 X123.71 Y120.18 E76.96366
G1 X123.025 Y121.173 E77.01798
G0 F7500 X123.382 Y121.36
G1 F1800 X122.988 Y122.399 E77.06801
G1 X122.855 Y123.5 E77.11795
G1 X122.988 Y124.601 E77.16788
G1 X123.382 Y125.64 E77.21791
G1 X124.012 Y126.553 E77.26786
G1 X124.842 Y127.29 E77.31784
G1 X125.826 Y127.805 E77.36784
G1 X126.903 Y128.071 E77.41779
G1 X128.014 Y128.071 E77.46782
G1 X129.091 Y127.805 E77.51777
G1 X130.074 Y127.29 E77.56773
G1 X130.906 Y126.553 E77.61778
G1 X131.535 Y125.64 E77.6677
G1 X131.929 Y124.602 E77.71769
G1 X132.063 Y123.5 E77.76768
G1 X131.929 Y122.398 E77.81766
G1 X131.535 Y121.36 E77.86765
G1 X130.906 Y120.447 E77.91757
G1 X130.074 Y119.71 E77.96762
G1 X129.091 Y119.195 E78.01758
G1 X128.014 Y118.929 E78.06753
G1 X126.903 Y118.929 E78.11756
G1 X125.826 Y119.195 E78.16751
G1 X124.842 Y119.71 E78.21751
G1 X124.012 Y120.447 E78.26749
G1 X123.382 Y121.36 E78.31744
G0 F7500 X123.739 Y121.547
;TYPE:WALL-OUTER
G1 F1800 X123.379 Y122.495 E78.36081
G1 X123.258 Y123.5 E78.40411
G1 X123.379 Y124.505 E78.44741
G1 X123.739 Y125.453 E78.49079
G1 X124.314 Y126.286 E78.53408
G1 X125.071 Y126.958 E78.57738
G1 X125.969 Y127.428 E78.62073
G1 X126.952 Y127.671 E78.66405
G1 X127.965 Y127.671 E78.70738
G1 X128.948 Y127.428 E78.75069
G1 X129.845 Y126.958 E78.79401
G1 X130.604 Y126.286 E78.83737
G1 X131.178 Y125.453 E78.88064
G1 X131.538 Y124.505 E78.92402
G1 X131.66 Y123.5 E78.96732
G1 X131.538 Y122.495 E79.01063
G1 X131.178 Y121.547 E79.054
G1 X130.604 Y120.714 E79.09727
G1 X129.845 Y120.042 E79.14064
G1 X128.948 Y119.572 E79.18395
G1 X127.965 Y119.329 E79.22727
G1 X126.952 Y119.329 E79.2706
G1 X125.969 Y119.572 E79.31391
G1 X125.071 Y120.042 E79.35726
G1 X124.314 Y120.714 E79.40056
G1 X123.739 Y121.547 E79.44386
G0 F7500 X123.597 Y121.92
G0 X123.187 Y121.764
G1 F2700 E73.44386
G0 F7500 X124.504 Y119.22
G0 X125.567 Y120.757
G0 X126.274 Y101.113
G0 X125.608 Y102.88
G0 X125.599 Y101.998
G0 X124.935 Y101.656
G0 X124.134 Y100.946
G0 X123.526 Y100.065
G0 X123.145 Y99.062
G0 X123.017 Y98
G0 X123.145 Y96.938
G0 X123.526 Y95.935
G0 X124.134 Y95.054
G0 X124.935 Y94.344
G0 X125.102 Y94.257
G0 X125.519 Y93
;TYPE:WALL-INNER
G1 F2700 E79.44386
G1 F1800 X125.683 Y93 E79.45124
G1 X126.854 Y93 E79.50397
G1 X128.063 Y93 E79.5584
G1 X129.234 Y93 E79.61113
G1 X129.398 Y93 E79.61851
G1 X187.541 Y93 E82.23645
G1 X187.541 Y142 E84.44272
G1 X47.459 Y142 E90.75004
G1 X47.459 Y93 E92.95631
G1 X125.519 Y93 E96.47103
G0 F7500 X125.826 Y93.695
G1 F1800 X124.842 Y94.21 E96.52104
G1 X124.012 Y94.947 E96.57102
G1 X123.382 Y95.86 E96.62097
G1 X122.988 Y96.899 E96.671
G1 X122.855 Y98 E96.72093
G1 X122.988 Y99.101 E96.77087
G1 X123.382 Y100.14 E96.8209
G1 X124.012 Y101.053 E96.87084
G1 X124.842 Y101.79 E96.92082
G1 X125.826 Y102.305 E96.97083
G1 X126.903 Y102.571 E97.02078
G1 X128.014 Y102.571 E97.0708
G1 X129.091 Y102.305 E97.12075
G1 X130.074 Y101.79 E97.17072
G1 X130.906 Y101.053 E97.22077
G1 X131.535 Y100.14 E97.27069
G1 X131.929 Y99.102 E97.32068
G1 X132.063 Y98 E97.37066
G1 X131.929 Y96.898 E97.42064
G1 X131.535 Y95.86 E97.47063
G1 X130.906 Y94.947 E97.52055
G1 X130.074 Y94.21 E97.5706
G1 X129.091 Y93.695 E97.62057
G1 X128.014 Y93.429 E97.67052
G1 X126.903 Y93.429 E97.72054
G1 X125.826 Y93.695 E97.77049
G1 F2700 E91.77049
G0 F7500 X124.935 Y94.344
G0 X124.134 Y95.054
G0 X123.526 Y95.935
G0 X123.219 Y96.746
G0 X122.961 Y97.965
G0 X123.258 Y98
;TYPE:WALL-OUTER
G1 F2700 E97.77049
G1 F1800 X123.379 Y99.005 E97.81379
G1 X123.739 Y99.953 E97.85717
G1 X124.314 Y100.786 E97.90046
G1 X125.071 Y101.458 E97.94376
G1 X125.969 Y101.928 E97.98711
G1 X126.952 Y102.171 E98.03043
G1 X127.965 Y102.171 E98.07376
G1 X128.948 Y101.928 E98.11707
G1 X129.845 Y101.458 E98.16039
G1 X130.604 Y100.786 E98.20375
G1 X131.178 Y99.953 E98.24702
G1 X131.538 Y99.005 E98.2904
G1 X131.66 Y98 E98.3337
G1 X131.538 Y96.995 E98.37701
G1 X131.178 Y96.047 E98.42038
G1 X130.604 Y95.214 E98.46365
G1 X129.845 Y94.542 E98.50701
G1 X128.948 Y94.072 E98.55033
G1 X127.965 Y93.829 E98.59364
G1 X126.952 Y93.829 E98.63698
G1 X125.969 Y94.072 E98.68029
G1 X125.071 Y94.542 E98.72364
G1 X124.314 Y95.214 E98.76694
G1 X123.739 Y96.047 E98.81024
G1 X123.379 Y96.995 E98.85361
G1 X123.258 Y98 E98.89691
G0 F7500 X123.305 Y98.397
G0 X122.869 Y98.448
G1 F2700 E92.89691
G0 F7500 X122.24 Y98
G0 X124.128 Y98
G0 X113.664 Y98.791
G0 X115.254 Y99.708
G0 X113.258 Y101.689
G0 X108.86 Y101.689
G0 X106.334 Y98.448
;TYPE:WALL-INNER
G1 F2700 E98.89691
G1 F1800 X108.533 Y102.255 E99.09487
G1 X113.586 Y102.255 E99.32238
G1 X116.114 Y97.878 E99.54997
G1 X113.586 Y93.5 E99.7776
G1 X108.532 Y93.5 E100.00516
G1 X106.004 Y97.878 E100.23278
G1 X106.334 Y98.448 E100.26244
G0 F7500 X106.68 Y98.248
G1 F1800 X108.764 Y101.855 E100.45001
G1 X113.355 Y101.855 E100.65672
G1 X115.652 Y97.878 E100.86351
G1 X113.355 Y93.9 E101.07034
G1 X108.763 Y93.9 E101.2771
G1 X106.466 Y97.878 E101.48393
G1 X106.68 Y98.248 E101.50317
G0 F7500 X106.928 Y97.878
;TYPE:WALL-OUTER
G1 F1800 X107.026 Y98.047 E101.51153
G1 X108.994 Y101.455 E101.67986
G1 X113.124 Y101.455 E101.85652
G1 X115.19 Y97.878 E102.03322
G1 X113.124 Y94.3 E102.20995
G1 X108.994 Y94.3 E102.3866
G1 X106.928 Y97.878 E102.56333
G0 F7500 X107.026 Y98.047
G0 X107.128 Y98.224
G0 X106.747 Y98.443
G1 F2700 E96.56333
G0 F7500 X106.675 Y97.986
G0 X106.863 Y96.048
G0 X108.452 Y96.965
G0 X92.794 Y97.878
G0 X94.649 Y97.878
G0 X93.887 Y96.572
G0 X50.459 Y96
;TYPE:WALL-INNER
G1 F2700 E102.56333
G1 F1800 X50.459 Y135 E104.31934
G1 X94.459 Y135 E106.30048
G1 X94.459 Y96 E108.05649
G1 X50.459 Y96 E110.03763
G0 F7500 X50.859 Y96.4
G1 F1800 X50.859 Y134.6 E111.75762
G1 X94.059 Y134.6 E113.70274
G1 X94.059 Y96.4 E115.42273
G1 X50.859 Y96.4 E117.36785
G0 F7500 X51.259 Y96.8
;TYPE:WALL-OUTER
G1 F1800 X51.259 Y134.2 E118.96762
G1 X93.659 Y134.2 E120.78127
G1 X93.659 Y96.8 E122.38104
G1 X51.259 Y96.8 E124.19468
G0 F7500 X51.259 Y97.2
G0 X50.819 Y97.2
G1 F2700 E118.19468
G0 F7500 X51.031 Y96.572
G0 X93.887 Y96.572
G0 X94.649 Y98
G0 X92.794 Y98
G0 X107.911 Y98
G0 X109.489 Y100.596
